public/kaspesky.svg

<svg width='239' height='72' viewBox='0 0 239 72' fill='none' xmlns='http://www.w3.org/2000/svg'><path d='M110.175 35.4296C110.175 42.3526 105.897 45.6139 100.638 45.6139H97.415V41.5006H100.44C103.663 41.5006 105.768 39.8031 105.768 35.4942C105.768 31.248 103.729 29.0963 100.309 29.0963C97.0208 29.0963 94.6522 31.1197 94.6522 35.4287V52.8H90.246V25.441H94.6522V27.7911H95.3096C95.9962 26.8807 96.8912 26.1454 97.9205 25.6459C98.9499 25.1464 100.084 24.8971 101.23 24.9185C106.097 24.9185 110.175 28.4437 110.175 35.4296ZM81.0375 33.6674L78.0784 33.4062C75.7767 33.2105 74.5269 32.5569 74.5269 31.2517C74.5269 29.6825 76.1078 28.7705 78.3397 28.7705C80.6414 28.7705 82.1526 29.8782 82.2865 31.3819H86.5643C86.3671 27.4643 83.341 25.0496 78.4085 25.0496C73.476 25.0496 70.1216 27.6609 70.1216 31.4474C70.1216 34.6468 72.1601 36.6701 76.7644 37.128L79.7895 37.3892C81.6308 37.5859 82.8156 37.9117 82.8156 39.6739C82.8156 41.2431 81.6996 42.3508 78.6716 42.3508C75.9087 42.3508 74.5278 41.1102 74.0675 39.4135H69.4632C69.9282 43.1982 73.1459 46.2037 78.6698 46.2037C83.8655 46.2037 87.2199 43.4612 87.2199 39.4791C87.2199 35.8228 84.8522 34.0606 81.0375 33.6693M127.342 39.3489C126.917 40.2262 126.242 40.9602 125.4 41.4593C124.558 41.9584 123.586 42.2007 122.607 42.156C119.384 42.156 116.95 40.0671 116.95 35.5625C116.95 31.2535 119.186 28.8379 122.673 28.8379C125.764 28.8379 127.54 30.6655 127.671 33.4735H119.713V36.672H132.012V34.5831C132.012 28.7677 128.133 24.9831 122.607 24.9831C117.476 24.9831 112.544 28.4428 112.544 35.5588C112.544 42.6748 117.472 46.1354 122.607 46.1354C124.677 46.2188 126.713 45.5879 128.367 44.3501C130.022 43.1122 131.194 41.3437 131.683 39.3453L127.342 39.3489ZM57.4909 24.9212C52.6235 24.9212 49.0059 27.4025 48.6116 31.2536H53.347C53.6762 29.8173 54.9912 28.7723 57.4909 28.7723C60.7142 28.7723 61.7687 30.4699 61.7687 32.4942V39.4173C61.034 40.317 60.114 41.0505 59.0703 41.5684C58.0266 42.0863 56.8834 42.3766 55.7174 42.42C53.5469 42.42 52.0348 41.3751 52.0348 39.4819C52.0348 37.6542 53.2186 36.5446 55.5203 36.5446H59.0718V33.3453H55.3882C50.3237 33.3453 47.4956 35.8265 47.4956 39.6775C47.4956 43.2683 50.2577 46.0098 54.7308 46.0098C57.0429 45.9767 59.2816 45.1993 61.1103 43.7945H61.7678V45.492H66.1739V32.1655C66.1739 27.1385 62.7545 24.9185 57.4918 24.9185M27.4336 45.6139H31.8398V18H27.4336V45.6139ZM46.0477 25.441H40.6539L34.2084 33.8631V36.4745L40.8511 45.6129H46.31L38.5494 35.1693L46.0477 25.441ZM206.139 25.441L202.521 33.4062C201.715 35.0429 201.055 36.7467 200.548 38.4978H199.89C199.372 36.762 198.69 35.0788 197.852 33.4708L194.299 25.44H189.432L197.982 43.5895L193.773 52.728H198.509L211.137 25.4381L206.139 25.441ZM188.376 25.441H182.983L176.537 33.8631V36.4745L183.181 45.6129H188.64L180.879 35.1674L188.376 25.441ZM160.686 33.6674L157.727 33.4062C155.424 33.2105 154.174 32.5569 154.174 31.2517C154.174 29.6825 155.755 28.7705 157.987 28.7705C160.289 28.7705 161.8 29.8782 161.934 31.3819H166.212C166.015 27.4643 162.989 25.0496 158.057 25.0496C153.124 25.0496 149.769 27.6609 149.769 31.4474C149.769 34.6468 151.809 36.6701 156.413 37.128L159.438 37.3892C161.279 37.5859 162.463 37.9117 162.463 39.6739C162.463 41.2431 161.347 42.3508 158.319 42.3508C155.557 42.3508 154.175 41.1102 153.716 39.4135H149.112C149.577 43.1982 152.795 46.2037 158.318 46.2037C163.514 46.2037 166.874 43.4612 166.874 39.4791C166.808 35.8228 164.44 34.0606 160.691 33.6693M169.768 45.6166H174.175V18H169.768V45.6166ZM140.567 27.7938H139.91V25.4437H135.504V45.6166H139.911V35.1028C139.911 31.512 141.555 29.4222 144.91 29.4222H147.738V24.9831H146.093C144.997 24.8728 143.893 25.0791 142.913 25.5771C141.933 26.0751 141.118 26.8436 140.568 27.7902' fill='#006D5C'/></svg>

<svg xmlns="http://www.w3.org/2000/svg" width="239" height="72" fill="none" viewBox="0 0 239 72"><path fill="#006d5c" d="M110.175 35.43c0 6.923-4.278 10.184-9.537 10.184h-3.223V41.5h3.025c3.223 0 5.328-1.698 5.328-6.007 0-4.246-2.039-6.398-5.459-6.398-3.288 0-5.657 2.024-5.657 6.333V52.8h-4.406V25.441h4.406v2.35h.658a7.2 7.2 0 0 1 2.61-2.145 7.3 7.3 0 0 1 3.31-.727c4.867 0 8.945 3.525 8.945 10.51m-29.138-1.763-2.959-.26c-2.301-.196-3.551-.85-3.551-2.155 0-1.57 1.58-2.482 3.813-2.482 2.301 0 3.813 1.108 3.947 2.612h4.277c-.197-3.918-3.223-6.332-8.155-6.332-4.933 0-8.287 2.61-8.287 6.397 0 3.2 2.038 5.223 6.642 5.681l3.026.261c1.84.197 3.026.523 3.026 2.285 0 1.57-1.116 2.677-4.144 2.677-2.763 0-4.144-1.24-4.605-2.937h-4.604c.465 3.784 3.683 6.79 9.207 6.79 5.195 0 8.55-2.743 8.55-6.725 0-3.656-2.368-5.418-6.183-5.81m46.305 5.68a4.98 4.98 0 0 1-1.942 2.11 5.03 5.03 0 0 1-2.793.697c-3.223 0-5.657-2.089-5.657-6.593 0-4.31 2.236-6.725 5.723-6.725 3.091 0 4.867 1.828 4.998 4.636h-7.958v3.198h12.299v-2.089c0-5.815-3.879-9.6-9.405-9.6-5.131 0-10.063 3.46-10.063 10.576s4.928 10.576 10.063 10.576a9 9 0 0 0 5.76-1.785 8.9 8.9 0 0 0 3.316-5.005zM57.491 24.92c-4.867 0-8.485 2.482-8.88 6.333h4.736c.33-1.437 1.644-2.482 4.144-2.482 3.223 0 4.278 1.698 4.278 3.722v6.923a8.2 8.2 0 0 1-2.699 2.151 8.2 8.2 0 0 1-3.353.852c-2.17 0-3.682-1.045-3.682-2.938 0-1.828 1.184-2.937 3.485-2.937h3.552v-3.2h-3.684c-5.064 0-7.892 2.482-7.892 6.333 0 3.59 2.762 6.332 7.235 6.332 2.312-.033 4.55-.81 6.38-2.215h.657v1.697h4.406V32.166c0-5.027-3.42-7.247-8.682-7.247M27.434 45.614h4.406V18h-4.406zM46.048 25.44h-5.394l-6.446 8.422v2.611l6.643 9.139h5.459l-7.76-10.444zm160.091 0-3.618 7.965a31 31 0 0 0-1.973 5.092h-.658a28.5 28.5 0 0 0-2.038-5.027l-3.553-8.031h-4.867l8.55 18.15-4.209 9.138h4.736l12.628-27.29zm-17.763 0h-5.393l-6.446 8.422v2.611l6.644 9.139h5.459l-7.761-10.446zm-27.69 8.226-2.959-.26c-2.303-.196-3.553-.85-3.553-2.155 0-1.57 1.581-2.482 3.813-2.482 2.302 0 3.813 1.108 3.947 2.612h4.278c-.197-3.918-3.223-6.332-8.155-6.332-4.933 0-8.288 2.61-8.288 6.397 0 3.2 2.04 5.223 6.644 5.681l3.025.261c1.841.197 3.025.523 3.025 2.285 0 1.57-1.116 2.677-4.144 2.677-2.762 0-4.144-1.24-4.603-2.937h-4.604c.465 3.784 3.683 6.79 9.206 6.79 5.196 0 8.556-2.743 8.556-6.725-.066-3.656-2.434-5.418-6.183-5.81m9.077 11.948h4.407V18h-4.407zm-29.201-17.823h-.657v-2.35h-4.406v20.173h4.407V35.103c0-3.591 1.644-5.68 4.999-5.68h2.828v-4.44h-1.645a5.75 5.75 0 0 0-3.18.594 5.7 5.7 0 0 0-2.345 2.213"/></svg>
